svgs/themed_icon_calendar_3.svg

<svg height="192" width="192" xmlns="http://www.w3.org/2000/svg"><path d="M146 30H46c-8.837 0-16 7.163-16 16v100c0 8.837 7.163 16 16 16h75.373a16 16 0 0 0 11.313-4.686l24.628-24.628A16 16 0 0 0 162 121.373V46c0-8.837-7.163-16-16-16Z" stroke="#000" stroke-width="12" fill="none"/><path d="M94.79 120.792c-2.544 0-5.136-.288-7.776-.864-2.592-.576-4.848-1.44-6.768-2.592-1.536-.816-2.496-1.824-2.88-3.024-.384-1.248-.336-2.4.144-3.456.528-1.056 1.368-1.8 2.52-2.232 1.152-.48 2.472-.36 3.96.36 1.872.912 3.648 1.56 5.328 1.944 1.68.384 3.36.576 5.04.576 5.856 0 8.784-2.184 8.784-6.552 0-4.032-2.736-6.048-8.208-6.048h-4.248c-1.584 0-2.808-.384-3.672-1.152-.816-.816-1.224-1.92-1.224-3.312 0-1.44.408-2.544 1.224-3.312.864-.816 2.088-1.224 3.672-1.224h3.168c2.4 0 4.296-.552 5.688-1.656 1.392-1.104 2.088-2.64 2.088-4.608 0-3.936-2.568-5.904-7.704-5.904-1.584 0-3.12.192-4.608.576-1.44.336-3.024.96-4.752 1.872-1.344.672-2.544.792-3.6.36-1.056-.432-1.848-1.176-2.376-2.232-.48-1.056-.576-2.16-.288-3.312.288-1.152 1.128-2.112 2.52-2.88 4.176-2.448 8.88-3.672 14.112-3.672 5.472 0 9.744 1.224 12.816 3.672 3.072 2.448 4.608 5.808 4.608 10.08 0 2.64-.672 4.968-2.016 6.984-1.344 2.016-3.216 3.48-5.616 4.392 2.88.816 5.112 2.328 6.696 4.536 1.632 2.16 2.448 4.776 2.448 7.848 0 4.608-1.704 8.232-5.112 10.872-3.408 2.64-8.064 3.96-13.968 3.96Z"/></svg>

<?xml version="1.0" encoding="UTF-8" standalone="no"?><svg xmlns:android="http://schemas.android.com/apk/res/android" height="192" width="192" xmlns="http://www.w3.org/2000/svg">
  <path d="M146,30H46C37.163,30 30,37.163 30,46V146C30,154.837 37.163,162 46,162H121.373C125.616,162 129.686,160.314 132.686,157.314L157.314,132.686C160.314,129.686 162,125.616 162,121.373V46C162,37.163 154.837,30 146,30Z" fill="#000000" fill-opacity="0.0" stroke="#000000" stroke-width="12"/>
  <path d="M94.79,120.792C92.246,120.792 89.654,120.504 87.014,119.928C84.422,119.352 82.166,118.488 80.246,117.336C78.71,116.52 77.75,115.512 77.366,114.312C76.982,113.064 77.03,111.912 77.51,110.856C78.038,109.8 78.878,109.056 80.03,108.624C81.182,108.144 82.502,108.264 83.99,108.984C85.862,109.896 87.638,110.544 89.318,110.928C90.998,111.312 92.678,111.504 94.358,111.504C100.214,111.504 103.142,109.32 103.142,104.952C103.142,100.92 100.406,98.904 94.934,98.904H90.686C89.102,98.904 87.878,98.52 87.014,97.752C86.198,96.936 85.79,95.832 85.79,94.44C85.79,93 86.198,91.896 87.014,91.128C87.878,90.312 89.102,89.904 90.686,89.904H93.854C96.254,89.904 98.15,89.352 99.542,88.248C100.934,87.144 101.63,85.608 101.63,83.64C101.63,79.704 99.062,77.736 93.926,77.736C92.342,77.736 90.806,77.928 89.318,78.312C87.878,78.648 86.294,79.272 84.566,80.184C83.222,80.856 82.022,80.976 80.966,80.544C79.91,80.112 79.118,79.368 78.59,78.312C78.11,77.256 78.014,76.152 78.302,75C78.59,73.848 79.43,72.888 80.822,72.12C84.998,69.672 89.702,68.448 94.934,68.448C100.406,68.448 104.678,69.672 107.75,72.12C110.822,74.568 112.358,77.928 112.358,82.2C112.358,84.84 111.686,87.168 110.342,89.184C108.998,91.2 107.126,92.664 104.726,93.576C107.606,94.392 109.838,95.904 111.422,98.112C113.054,100.272 113.87,102.888 113.87,105.96C113.87,110.568 112.166,114.192 108.758,116.832C105.35,119.472 100.694,120.792 94.79,120.792Z" fill="#000000"/>
</svg>
